Adwaita++/mimetypes/scalable/inode-symlink.svg

<svg height="256" viewBox="0 0 67.73 67.73" width="256" xmlns="http://www.w3.org/2000/svg" xmlns:xlink="http://www.w3.org/1999/xlink">
  <filter id="filter16020-3" color-interpolation-filters="sRGB" height="1.021433" width="1.027265" x="-.013633" y="-.010717">
    <feGaussianBlur stdDeviation="2.0004419"/>
  </filter>
  <g enable-background="new" stroke-width=".25" transform="matrix(.13297834 0 0 .13297834 .605824 28.614877)">
    <g enable-background="new" stroke-width=".25" transform="translate(0 -.000003)">
      <path d="m111.82842-178.55025h200l120.17158 119.671571.005 296.240039c.00031 17.728-14.44878 32.08839-32.17678 32.08839h-288c-17.72799 0-31.999992-14.272-31.999992-32v-384c0-17.728 14.272002-32 31.999992-32z" filter="url(#filter16020-3)" opacity=".4"/>
      <path d="m111.82842-179.67158h200l120.17158 119.67158.005 296.24003c.00031 17.728-14.44878 32.08839-32.17678 32.08839h-288c-17.727992 0-31.999992-14.272-31.999992-32v-384c0-17.728 14.272-32 31.999992-32z" fill="#ed333b"/>
      <path d="m311.82842-175.69243v88.000007c0 17.728 14.44211 31.693795 32.17011 31.693795l88.00147-.022223v-3.979149z" opacity=".25"/>
      <path d="m311.82842-179.67158v88.000008c0 17.728 14.44211 31.693795 32.17011 31.693795l88.00147-.022223z" fill="#b2121a"/>
    </g>
    <path d="m307.56996 124.69451-51.48422-51.48422-51.48621 51.82245-28.26589-28.60213 51.48422-51.149972-51.14798-51.4842185 27.25717-27.5934075 51.48422 51.486207 51.48621-51.822445 28.60212 28.6021225-51.82244 51.4862075 51.48621 51.147986-27.5954 27.59341z" fill="#fff" stroke-width=".497394"/>
  </g>
</svg>

<?xml version="1.0" encoding="UTF-8" standalone="no"?>
<svg
   xmlns:dc="http://purl.org/dc/elements/1.1/"
   xmlns:cc="http://creativecommons.org/ns#"
   xmlns:rdf="http://www.w3.org/1999/02/22-rdf-syntax-ns#"
   xmlns:svg="http://www.w3.org/2000/svg"
   xmlns="http://www.w3.org/2000/svg"
   xmlns:sodipodi="http://sodipodi.sourceforge.net/DTD/sodipodi-0.dtd"
   xmlns:inkscape="http://www.inkscape.org/namespaces/inkscape"
   width="256"
   height="256"
   version="1.1"
   viewBox="0 0 67.73 67.73"
   id="svg37"
   sodipodi:docname="inode-symlink.svg"
   inkscape:version="0.92.3 (2405546, 2018-03-11)">
  <metadata
     id="metadata41">
    <rdf:RDF>
      <cc:Work
         rdf:about="">
        <dc:format>image/svg+xml</dc:format>
        <dc:type
           rdf:resource="http://purl.org/dc/dcmitype/StillImage" />
        <dc:title />
      </cc:Work>
    </rdf:RDF>
  </metadata>
  <sodipodi:namedview
     pagecolor="#ffffff"
     bordercolor="#666666"
     borderopacity="1"
     objecttolerance="10"
     gridtolerance="10"
     guidetolerance="10"
     inkscape:pageopacity="0"
     inkscape:pageshadow="2"
     inkscape:window-width="1920"
     inkscape:window-height="1009"
     id="namedview39"
     showgrid="false"
     inkscape:zoom="3.2617188"
     inkscape:cx="73.274252"
     inkscape:cy="128"
     inkscape:window-x="0"
     inkscape:window-y="34"
     inkscape:window-maximized="1"
     inkscape:current-layer="g17498" />
  <defs
     id="defs17">
    <linearGradient
       id="linearGradient4226"
       x1="529.655"
       x2="-35.31"
       y1="401.584"
       y2="119.093"
       gradientTransform="matrix(0 -.11988932 .11988589 0 .36278001 292.54831)"
       gradientUnits="userSpaceOnUse">
      <stop
         style="stop-color:#f2f2f2"
         offset="0"
         id="stop2" />
      <stop
         style="stop-color:#f9f9f9"
         offset="1"
         id="stop4" />
    </linearGradient>
    <linearGradient
       id="linearGradient4358"
       x1="88"
       x2="488"
       y1="88"
       y2="488"
       gradientUnits="userSpaceOnUse">
      <stop
         style="stop-color:#000000;stop-opacity:.58823532"
         offset="0"
         id="stop7" />
      <stop
         style="stop-color:#000000;stop-opacity:0"
         offset=".88"
         id="stop9" />
      <stop
         style="stop-color:#000000"
         offset="1"
         id="stop11" />
    </linearGradient>
    <filter
       id="filter4346"
       x="-.01"
       y="-.01"
       width="1.026"
       height="1.022"
       style="color-interpolation-filters:sRGB">
      <feGaussianBlur
         stdDeviation="2.12"
         id="feGaussianBlur14" />
    </filter>
    <filter
       inkscape:collect="always"
       style="color-interpolation-filters:sRGB"
       id="filter16020-3"
       x="-0.013632531"
       width="1.0272651"
       y="-0.010716653"
       height="1.0214334">
      <feGaussianBlur
         inkscape:collect="always"
         stdDeviation="2.0004419"
         id="feGaussianBlur16022-6" />
    </filter>
    <linearGradient
       gradientTransform="matrix(1.6579787,0,0,1.6579787,43.695336,-167.18602)"
       id="paint1_linear"
       x1="128"
       y1="72"
       x2="128"
       y2="184.5"
       gradientUnits="userSpaceOnUse">
      <stop
         stop-color="#49535E"
         id="stop30" />
      <stop
         offset="1"
         stop-color="#2F3943"
         id="stop32" />
    </linearGradient>
    <linearGradient
       gradientTransform="matrix(1.9895745,0,0,1.9895745,2.1752395,-209.21579)"
       id="paint1_linear-3"
       x1="127.536"
       y1="68"
       x2="127.536"
       y2="188"
       gradientUnits="userSpaceOnUse">
      <stop
         stop-color="#49535E"
         id="stop30-6" />
      <stop
         offset="1"
         stop-color="#2F3943"
         id="stop32-7" />
    </linearGradient>
    <linearGradient
       gradientTransform="matrix(1.9895745,0,0,1.9895745,-44.293683,-194.52629)"
       id="paint1_linear-5"
       x1="71"
       y1="68"
       x2="71"
       y2="188"
       gradientUnits="userSpaceOnUse">
      <stop
         offset="1e-07"
         stop-color="#FF4400"
         id="stop32-3" />
      <stop
         offset="1"
         stop-color="#DC1414"
         id="stop34" />
    </linearGradient>
    <linearGradient
       gradientTransform="matrix(1.9895745,0,0,1.9895745,-9.2199861,-218.09143)"
       id="paint1_linear-56"
       x1="71"
       y1="68"
       x2="71"
       y2="188"
       gradientUnits="userSpaceOnUse">
      <stop
         offset="1e-07"
         stop-color="#FF4400"
         id="stop32-2" />
      <stop
         offset="1"
         stop-color="#DC1414"
         id="stop34-9" />
    </linearGradient>
    <linearGradient
       id="d"
       x1="0.51300001"
       y1="1.191"
       x2="0.51300001"
       y2="-0.213"
       gradientTransform="matrix(350.17586,0,0,445.66465,-311.17111,-147.89638)"
       gradientUnits="userSpaceOnUse">
      <stop
         offset="0%"
         stop-color="#bc1938"
         id="stop27" />
      <stop
         offset="48.272%"
         stop-color="#ec3c50"
         id="stop29" />
      <stop
         offset="100%"
         stop-color="#da1636"
         id="stop31" />
    </linearGradient>
  </defs>
  <g
     transform="matrix(0.13297834,0,0,0.13297834,0.60582436,28.614877)"
     style="display:inline;stroke-width:0.25;enable-background:new"
     id="g17498">
    <g
       transform="translate(1.7771246e-7,-3.4178172e-6)"
       style="display:inline;stroke-width:0.25;enable-background:new"
       id="g17498-7">
      <path
         style="display:inline;opacity:0.4;fill:#000000;fill-opacity:1;stroke:none;stroke-width:0.5;stroke-linejoin:round;stroke-miterlimit:4;stroke-dasharray:none;stroke-opacity:1;filter:url(#filter16020-3);enable-background:new"
         clip-path="none"
         d="m 111.82842,-178.55025 h 200 L 432,-58.878679 432.005,237.36136 c 3.1e-4,17.728 -14.44878,32.08839 -32.17678,32.08839 h -288 c -17.72799,0 -31.999992,-14.272 -31.999992,-32 v -384 c 0,-17.728 14.272002,-32 31.999992,-32 z"
         id="path6869-5"
         inkscape:connector-curvature="0"
         sodipodi:nodetypes="sccssssss" />
      <path
         sodipodi:nodetypes="sccssssss"
         inkscape:connector-curvature="0"
         id="rect2069-3"
         d="m 111.82842,-179.67158 h 200 L 432,-60 l 0.005,296.24003 c 3.1e-4,17.728 -14.44878,32.08839 -32.17678,32.08839 h -288 c -17.727992,0 -31.999992,-14.272 -31.999992,-32 v -384 c 0,-17.728 14.272,-32 31.999992,-32 z"
         clip-path="none"
         style="display:inline;opacity:1;fill:#ed333b;fill-opacity:1;stroke:none;stroke-width:0.5;stroke-linejoin:round;stroke-miterlimit:4;stroke-dasharray:none;stroke-opacity:1;enable-background:new" />
      <path
         inkscape:connector-curvature="0"
         style="display:inline;opacity:0.25;vector-effect:none;fill:#000000;fill-opacity:1;stroke:none;stroke-width:0.5;stroke-linecap:butt;stroke-linejoin:round;stroke-miterlimit:4;stroke-dasharray:none;stroke-dashoffset:0;stroke-opacity:1;enable-background:new"
         d="m 311.82842,-175.69243 v 88.000007 c 0,17.728 14.44211,31.693795 32.17011,31.693795 L 432,-56.020851 V -60 Z"
         id="path836"
         sodipodi:nodetypes="cscccc" />
      <path
         sodipodi:nodetypes="csccc"
         id="rect26812-5"
         d="m 311.82842,-179.67158 v 88.000008 c 0,17.728 14.44211,31.693795 32.17011,31.693795 L 432,-60 Z"
         style="display:inline;opacity:1;vector-effect:none;fill:#b2121a;fill-opacity:1;stroke:none;stroke-width:0.5;stroke-linecap:butt;stroke-linejoin:round;stroke-miterlimit:4;stroke-dasharray:none;stroke-dashoffset:0;stroke-opacity:1;enable-background:new"
         inkscape:connector-curvature="0" />
    </g>
    <path
       inkscape:connector-curvature="0"
       style="isolation:isolate;fill:#ffffff;stroke-width:0.49739361"
       d="M 307.56996,124.69451 256.08574,73.21029 204.59953,125.03274 176.33364,96.43061 227.81786,45.280638 176.66988,-6.2035805 203.92705,-33.796988 255.41127,17.689219 306.89748,-34.133226 335.4996,-5.5311035 283.67716,45.955104 335.16337,97.10309 307.56797,124.6965 Z"
       id="path42" />
  </g>
</svg>
